X:1
T:Title
%%score { 1 | ( 2 3 ) }
L:1/8
Q:1/4=100
M:4/4
K:Ab
V:1 treble nm="Grand Piano"
V:2 bass 
V:3 bass 
V:1
 [CEA]2 [A,EA]2 [B,EG]2 [CE]2 | [A,DF]2 [B,DG]2 [CEA]2 [CEA]2 | B2 c2 d2 d2 | c2 [Ec]2 [EB]4 | %4
w: Christoph~Antoh * * *||||
 [CEA]2 [A,EA]2 [B,EG]2 [CE]2 | [A,DF]2 [B,DG]2 [CEA]2 [CEA]2 | B2 c2 d2 d2 | c2 [Ec]2 B4 | %8
w: ||||
 c2 [Ad]2 [Ge]2 A2 | G2 A2 [AB]2 [GB]2 | [EAc]2 [EAc]2 [EAB]2 [CGB]2 | %11
w: |||
 [CGA]2 [CFA]2 [FG]2 [C=EG]2 | [CFA]2 [DFA]2 [DFB]2 [EGB]2 | [EGc]2 [EAc]2 [EGd]4 | %14
w: |||
 [EAc]2 [EAc]2 [DGB]2 [A,EA]2 |[M:8/4] [B,FA]2 .[B,EG]2 [CEA]4 z8 |[M:4/4] [DFA]4 [CEA]4 |] %17
w: |||
V:2
 A,,2 C,2 E,2 A,2 | D,2 B,,2 A,,2 A,,2 | [E,G,E]2 [A,E]2 [F,A,D]2 [G,B,E]2 | %3
 [A,B,E]2 [A,,A,]2 [E,G,]4 | A,,2 C,2 E,2 A,2 | D,2 B,,2 A,,2 A,,2 | %6
 [E,G,E]2 [A,E]2 [F,A,D]2 [G,B,E]2 | [A,B,E]2 [A,,A,]2 [E,G,E]4 | [A,E]2 [F,D]2 [E,B,]2 [CE]2 | %9
 [B,DE]2 [A,CE]2 [E,E]2 [E,E]2 | A,2 A,,2 E,2 =E,2 | F,2 A,2 C2 C,2 | F,2 D,2 B,,2 E,2 | %13
 A,2 A,,2 E,4 | A,2 A,,2 B,,2 C,2 |[M:8/4] .D,3 D A,,4 z8 |[M:4/4] D,4 A,,4 |] %17
V:3
 x8 | x8 | x8 | x8 | x8 | x8 | x8 | x8 | x8 | x8 | x8 | x8 | x8 | x8 | x8 |[M:8/4] z2 E,2 z4 z8 | %16
[M:4/4] x8 |] %17

